X:10
T:Big John McNeil
R:Reel
O:Canada, USA
S:Various
Z:Transcription, arrangement, chords:Mike Long
M:C|
L:1/8
K:A
A2|:"A"A,2 CE FECE|AECE FECE|\
A,2 CE FECE|"D"FAGF "E"EDCB,|\
"A"A,2 CE FECE|
AECE FECE|\
"A"A,CB,D "(D)"CEDF|[1 "E"EGBd "A"cA A2:|[2 "E"EGBd "A"cA cd|]
|:"A"eA"(D)"fA "A"eAca|"A"eA"(D)"fA "A"e2f/g/a|"A"eA"(D)"fA "A"eAce|\
"D"dfca "E"B2 d/e/f|
"A"eA"(D)"fA "A"eAca|"A"eA"(D)"fA "A"e2e/f/g|"A"agag "D"fedc|\
[1 "E"defg "A"a2 cd:|[2 "E"BAGF EDCB,|]
